X:1
T:I’m Waiting for Thee, Lord
T:I’m Waiting for Thee, Lord
T:George Frederick Root, 1866
T:Hannah Kilham Burlingham, 1884
T:Public Domain Courtesy of the Cyber Hymnal™
C:George Frederick Root, 1866
Z:Public Domain
Z:Courtesy of the Cyber Hymnal™
%%score ( 1 2 ) ( 3 4 )
L:1/8
Q:1/4=112
M:3/4
K:E
V:1 treble 
V:2 treble 
V:3 bass 
V:4 bass 
V:1
 (EF) | [EG]2 [EG]2 (GA) | [EB]2 [EB]2 [Ec]2 | [EG]2 [EG]2 [DF]2 | E2 E2 (EF) | [EG]2 [EG]2 (GA) | %6
w: 1.~I’m *|wait- ing for *|Thee, Lord, Thy|beau- ty to|see, Lord; I’m *|wait- ing for *|
w: 2.~’Mid *|dan- ger and *|fear, Lord, I’m|oft wea- ry|here, Lord, The *|day must be *|
w: 3.~Whilst *|Thou art a- *|way, Lord, I|stum- ble and|stray, Lord; Oh! *|hast- en the *|
w: 4.~E’en *|now let my *|ways, Lord, Be|bright with Thy|praise, Lord; For *|brief are the *|
 [EB]2 [EB]2 [Ec]2 | [EG]2 [EG]2 [DF]2 | E4 (ed) | [Ec]2 [Ec]2 [Ae]2 | [GB]2 [GB]2 (c>B) | %11
w: Thee— For Thy|com- ing a-|gain. Thou’rt *|gone o- ver|there, Lord, A *|
w: near of Thy|com- ing a-|gain. ’Tis *|all sun- shine|there, Lord, No *|
w: day of Thy|com- ing a-|gain. This *|is not my|rest, Lord, A *|
w: days ere Thy|com- ing a-|gain. I’m *|wait- ing for|Thee, Lord, Thy *|
 E2 E2 [DF]2 | [EG]2 [EB]2 (ed) | [Ec]2 [Ec]2 [Ae]2 | [GB]2 [GB]2 [Ec]2 | [EB]2 E2 [DF]2 | E4 |] %17
w: place to pre-|pare, Lord, Thy *|home I shall|share At Thy|com- ing a-|gain.|
w: sigh- ing nor|care, Lord, But *|glo- ry so|fair At Thy|com- ing a-|gain.|
w: pil- grim con-|fessed, Lord, I *|wait to be|blest, At Thy|com- ing a-|gain.|
w: beau- ty to|see, Lord, No *|tri- umph for|me Like Thy|com- ing a-|gain.|
V:2
 E2 | x4 E2 | x6 | x6 | E2 E2 E2 | x4 E2 | x6 | x6 | E4 E2 | x6 | x4 E2 | E2 E2 x2 | x4 E2 | x6 | %14
 x6 | x2 E2 x2 | E4 |] %17
V:3
 (G,A,) | [E,B,]2 [E,B,]2 (B,A,) | [E,G,]2 [E,G,]2 [A,,A,]2 | (E,G,) [B,,B,]2 [B,,A,]2 | %4
 [E,G,]2 [E,G,]2 (G,A,) | [E,B,]2 [E,B,]2 (B,A,) | [E,G,]2 [E,G,]2 [A,,A,]2 | %7
 (E,G,) [B,,B,]2 [B,,A,]2 | [E,G,]4 (G,G,) | A,2 A,2 [A,,C]2 | [E,G,]2 E,2 [E,G,]2 | %11
 [C,G,]2 [C,G,]2 [B,,B,]2 | [E,B,]2 [E,G,]2 (G,G,) | A,2 A,2 [A,C]2 | [E,E]2 E,2 [A,,A,]2 | %15
 [B,,G,]2 [B,,G,]2 [B,,A,]2 | [E,G,]4 |] %17
V:4
 E,2 | x4 E,2 | x6 | B,,2 x4 | x4 E,2 | x4 E,2 | x6 | B,,2 x4 | x4 E,2 | A,2 A,2 x2 | x2 E,2 x2 | %11
 x6 | x4 E,2 | A,2 A,2 x2 | x2 E,2 x2 | x6 | x4 |] %17

